X:15
T:Rose,The. TJD.15
M:6/8
L:1/8
Q:1/4=100
S:T.J.Dixon MS1, Lincolnshire, 1798
R:jig
N:Dots added to final d in bars 4 and 8
N:Repeat mark added at start of B part
A:Lincolnshire, Holton le Moor
Z:vmp.R.Greig2010
K:D
dddd2e|ffff2g|afd gec|dddd3:|!
|:aba afd|efe ecA|Bcd efg|fddd3:|

